X:1
T:Title
%%score { ( 1 3 ) | ( 2 4 ) }
L:1/8
M:4/4
K:Eb
V:1 treble nm="Grand Piano"
V:3 treble 
V:2 bass 
V:4 bass 
V:1
 z4 z2[Q:1/4=100] E>F | G2 G>[FA] [GB]2 [Ac][GB] | G2 E2 c2 A>c |[M:1/4] [GB]2 |[M:3/4] G2 e2 G2 | %5
 [DF]6 |[M:1/4] E>F |[M:4/4] G2 G>[FA] [GB]2 [Ac][GB] | G2 E2 c2 A>c |[M:1/4] [GB]2 | %10
[M:3/4] [Ge]2 [Fd]2 [Ec]2 | [B,DB]6 |[M:1/4] B>A |[M:4/4] G6 z2 | c6 z2 | %15
 [EB]2 [EG]2 [GB]2 [EG][FA] |[M:7/8] [GB]2 [EG]2 [Ge]3 |[M:1/4] d>c |[M:4/4] B6 z2 | c6 z2 | %20
 B2 e2 BA[EG][DF] |[M:3/4] E6 |[M:1/4] B>A |[M:4/4] G6 z2 | c6 z2 | [EB]2 [EG]2 [GB]2 [EG][FA] | %26
[M:7/8] [GB]2 [EG]2 [Ge]3 |[M:1/4] d>c |[M:4/4] B6 z2 | c6 z2 | B2 e2 BA[EG][DF] |[M:3/4] E6 |] %32
V:2
 z4 z2 [E,G,]>[E,A,E] | [E,B,E]2 [E,B,E]>[E,B,] [E,E]2 [E,E][E,E] | %2
 [E,B,E]2 [E,G,]2[K:treble] [A,E]2 [A,CE]>[A,EA] |[M:1/4][K:bass] [E,E]2 | %4
[M:3/4] [E,B,E]2 [E,G,E]2 [E,B,E]2 | [B,,B,]6 |[M:1/4] [E,G,]>[E,A,E] | %7
[M:4/4] [E,B,E]2 [E,B,E]>[E,B,] [E,E]2 [E,E][E,E] | %8
 [E,B,E]2 [E,G,]2[K:treble] [A,E]2 [A,CE]>[A,EA] |[M:1/4][K:bass] [E,E]2 | %10
[M:3/4] [E,C]2 [F,B,]2 [F,=A,]2 | B,,6 |[M:1/4][K:treble] G>F |[M:4/4] E6[K:bass][K:treble] z2 | %14
 A6[K:bass] z2 | [E,G,]2 [E,B,]2 [E,E]2 [E,B,][E,B,] |[M:7/8] [E,E]2 [E,B,]2 [E,B,]3 | %17
[M:1/4][K:treble] B>A |[M:4/4] G6[K:bass][K:treble] z2 | A6 z2 | %20
 [B,EG]2 [B,G]2 [B,G][B,F][K:bass][B,,B,][B,,A,] |[M:3/4] [E,G,]6 |[M:1/4][K:treble] G>F | %23
[M:4/4] E6[K:bass][K:treble] z2 | A6[K:bass] z2 | [E,G,]2 [E,B,]2 [E,E]2 [E,B,][E,B,] | %26
[M:7/8] [E,E]2 [E,B,]2 [E,B,]3 |[M:1/4][K:treble] B>A |[M:4/4] G6[K:bass][K:treble] z2 | A6 z2 | %30
 [B,EG]2 [B,G]2 [B,G][B,F][K:bass][B,,B,][B,,A,] |[M:3/4] [E,G,]6 |] %32
V:3
 x8 | x8 | x8 |[M:1/4] x2 |[M:3/4] x6 | x6 |[M:1/4] x2 |[M:4/4] x8 | x8 |[M:1/4] x2 |[M:3/4] x6 | %11
 x6 |[M:1/4] x2 |[M:4/4] z2 B,>B, B,2 e>d | z2 E>E E2 [CEA]>[Ec] | x8 |[M:7/8] x7 |[M:1/4] x2 | %18
[M:4/4] z2 E>E E2 e>d | z2 E>E E2 A>c | x8 |[M:3/4] x6 |[M:1/4] x2 |[M:4/4] z2 B,>B, B,2 e>d | %24
 z2 E>E E2 [CEA]>[Ec] | x8 |[M:7/8] x7 |[M:1/4] x2 |[M:4/4] z2 E>E E2 e>d | z2 E>E E2 A>c | x8 | %31
[M:3/4] x6 |] %32
V:4
 x8 | x8 | x4[K:treble] x4 |[M:1/4][K:bass] x2 |[M:3/4] x6 | x6 |[M:1/4] x2 |[M:4/4] x8 | %8
 x4[K:treble] x4 |[M:1/4][K:bass] x2 |[M:3/4] x6 | x6 |[M:1/4][K:treble] x2 | %13
[M:4/4] z2[K:bass] E,>E, E,2[K:treble] G>B | z2[K:bass] A,,>A,, A,,2 A,,>[A,,A,] | x8 |[M:7/8] x7 | %17
[M:1/4][K:treble] x2 |[M:4/4] z2[K:bass] E,>E, E,2[K:treble] c>B | z2 A,>A, A,2 [A,CE]>[A,EA] | %20
 x6[K:bass] x2 |[M:3/4] x6 |[M:1/4][K:treble] x2 |[M:4/4] z2[K:bass] E,>E, E,2[K:treble] G>B | %24
 z2[K:bass] A,,>A,, A,,2 A,,>[A,,A,] | x8 |[M:7/8] x7 |[M:1/4][K:treble] x2 | %28
[M:4/4] z2[K:bass] E,>E, E,2[K:treble] c>B | z2 A,>A, A,2 [A,CE]>[A,EA] | x6[K:bass] x2 | %31
[M:3/4] x6 |] %32

